X: 2
T: Paddy Fahey's
R: reel
M: 4/4
L: 1/8
K: Gmaj
_BABd g3 d|BGFG BGdG|A=F F2 Ad^cd|BcAF DGGA|
_BABd g3 d|BGFG BGdG|A=F F2 Ad^cd|BcAF DG G2|
_BABd g3 d|BGFG BGdG|A=F F2 Ad^cd|BcAF DGGA|
_BABd g3 d|BGFG BGdG|A=F F2 Ad^cd|BcAF DG G2||
g3 fa g3 a|bgdg gfdc|BDGB ADFD|E/F/GBA GE E2|
g3 fa g3 a|bgdg gfdc|BDGB ADFD|E/F/GBA A4|
g3 fa g3 a|bgdg gfdc|BDGB ADFD|E/F/GBA GE E2|
g3 fa g3 a|bgdg gfdc|BDGB ADFD|E/F/G B/c/d g4||

composer: Paddy Fahey
